X:75
T:Gassed and Gone
R:double jig
C: 1994, 2010 L.E. McCullough 
M:6/8
L:1/8
K:Amix
|:~A3 Ace|~a3 gec|ded def|~g3 edB|
~A3 Ace|~a3 gec|ded gfe|1 dBG A2G:|2 dBG A2f|]
|:~g3 edB|~g3 efg|~a3 bag|age def|
~g3 edB|~g3 efg|~a3 gfe|1 dBG A2f:|2 dBG A2G|]
<end>
<start>
